X: 6337
T: Cas, The
R: jig
M: 6/8
K: Gmajor
~B3 dcB|ABG Dgf|efg dcB|AB/A/G FED|
EBE FdA|~G3 Bed|1 ecA BGF|EFD FGA:|2 efg dcB|A2B cBA||
BGF EBA|BGE FGA|BcA BgB|fag fef|
g2d B/A/Gd|GeG dgf|1 efg dcB|A2B cBA:|2 efg edc|BAG A2z||

